src/icons/scala.svg

<svg width="16" height="16" viewBox="0 0 16 16" fill="none" xmlns="http://www.w3.org/2000/svg">
<path d="M12.45 14H3.463C3.07383 13.9981 2.70127 13.842 2.42702 13.5659C2.15277 13.2898 1.9992 12.9162 2 12.527V3.473C1.9992 3.08382 2.15277 2.71021 2.42702 2.43408C2.70127 2.15796 3.07383 2.00185 3.463 2H12.458C12.8474 2.00185 13.2201 2.15809 13.4943 2.43444C13.7686 2.71078 13.9221 3.08465 13.921 3.474V12.535C13.9171 12.9234 13.7606 13.2946 13.4855 13.5687C13.2103 13.8427 12.8384 13.9977 12.45 14Z" fill="#F07178"/>
<path fill-rule="evenodd" clip-rule="evenodd" d="M12.45 14H3.463C3.07383 13.9981 2.70127 13.842 2.42702 13.5659C2.15277 13.2898 1.9992 12.9162 2 12.527V3.473C1.9992 3.08382 2.15277 2.71021 2.42702 2.43408C2.70127 2.15796 3.07383 2.00185 3.463 2H12.458C12.8474 2.00185 13.2201 2.15809 13.4943 2.43444C13.7686 2.71078 13.9221 3.08465 13.921 3.474V12.535C13.9171 12.9234 13.7606 13.2946 13.4855 13.5687C13.2103 13.8427 12.8384 13.9977 12.45 14Z" fill="#FC8289"/>
<mask id="mask0_38_2569" style="mask-type:luminance" maskUnits="userSpaceOnUse" x="2" y="2" width="12" height="12">
<path fill-rule="evenodd" clip-rule="evenodd" d="M12.45 14H3.463C3.07383 13.9981 2.70127 13.842 2.42702 13.5659C2.15277 13.2898 1.9992 12.9162 2 12.527V3.473C1.9992 3.08382 2.15277 2.71021 2.42702 2.43408C2.70127 2.15796 3.07383 2.00185 3.463 2H12.458C12.8474 2.00185 13.2201 2.15809 13.4943 2.43444C13.7686 2.71078 13.9221 3.08465 13.921 3.474V12.535C13.9171 12.9234 13.7606 13.2946 13.4855 13.5687C13.2103 13.8427 12.8384 13.9977 12.45 14Z" fill="white"/>
</mask>
<g mask="url(#mask0_38_2569)">
<path d="M5.19678 6.888L5.97678 7.674L5.19678 9.853L6.03778 10.691L5.19778 12.809L6.38678 14H13.9108V6.412L10.7138 3.192V3.8L5.19678 6.888Z" fill="#AC4142"/>
</g>
<g opacity="0.6">
<path d="M5.19678 6.88799C5.19678 6.88799 10.7068 7.44399 10.7068 8.37099V6.14699C10.7068 6.14699 10.7068 5.22099 5.19678 4.66499V6.88799ZM5.19678 9.85299C5.19678 9.85299 10.7068 10.409 10.7068 11.335V9.11199C10.7068 9.11199 10.7068 8.18499 5.19678 7.62899V9.85299Z" fill="white"/>
</g>
<path d="M10.7148 3.19099V5.41499C10.7148 5.41499 10.7148 6.34099 5.20478 6.89699V4.66499C5.19678 4.66499 10.7148 4.11799 10.7148 3.19099ZM5.19678 7.62999C5.19678 7.62999 10.7068 7.07399 10.7068 6.14699V8.37099C10.7068 8.37099 10.7068 9.29699 5.19678 9.85299V7.62999ZM5.19678 12.809V10.585C5.19678 10.585 10.7068 10.029 10.7068 9.10299V11.326C10.7148 11.336 10.7148 12.253 5.19678 12.809Z" fill="white"/>
</svg>

<svg xmlns="http://www.w3.org/2000/svg" width="16" height="16" fill="none"><path fill="#F07178" d="M12.45 14H3.463A1.47 1.47 0 0 1 2 12.527V3.473A1.47 1.47 0 0 1 3.463 2h8.995a1.47 1.47 0 0 1 1.463 1.474v9.061A1.48 1.48 0 0 1 12.45 14"/><path fill="#FC8289" fill-rule="evenodd" d="M12.45 14H3.463A1.47 1.47 0 0 1 2 12.527V3.473A1.47 1.47 0 0 1 3.463 2h8.995a1.47 1.47 0 0 1 1.463 1.474v9.061A1.48 1.48 0 0 1 12.45 14" clip-rule="evenodd"/><mask id="a" width="12" height="12" x="2" y="2" maskUnits="userSpaceOnUse" style="mask-type:luminance"><path fill="#fff" fill-rule="evenodd" d="M12.45 14H3.463A1.47 1.47 0 0 1 2 12.527V3.473A1.47 1.47 0 0 1 3.463 2h8.995a1.47 1.47 0 0 1 1.463 1.474v9.061A1.48 1.48 0 0 1 12.45 14" clip-rule="evenodd"/></mask><g mask="url(#a)"><path fill="#AC4142" d="m5.197 6.888.78.786-.78 2.179.841.838-.84 2.118L6.387 14h7.524V6.412l-3.197-3.22V3.8z"/></g><g fill="#fff"><g opacity=".6"><path d="M5.197 6.888s5.51.556 5.51 1.483V6.147s0-.926-5.51-1.482v2.224M5.197 9.853s5.51.556 5.51 1.482V9.112s0-.927-5.51-1.483z"/></g><path d="M10.715 3.191v2.224s0 .926-5.51 1.482V4.665c-.008 0 5.51-.547 5.51-1.474M5.197 7.63s5.51-.556 5.51-1.483v2.224s0 .926-5.51 1.482zM5.197 12.809v-2.224s5.51-.556 5.51-1.482v2.223c.008.01.008.927-5.51 1.483"/></g></svg>
